48/places/folder.svg

<?xml version="1.0" encoding="UTF-8"?>
<svg id="svg4" version="1.1" viewBox="0 0 48 48" xmlns="http://www.w3.org/2000/svg">
 <defs id="defs3051">
  <style id="current-color-scheme" type="text/css">.ColorScheme-Text {
        color:#31363b;
      }
      .ColorScheme-Accent {
        color:#3daee9;
      }</style>
 </defs>
 <path id="path1" class="ColorScheme-Accent" d="m5 6v10h-1v22l7 4h33v-26l-1-0.59638v-2.4036l-7-4h-12l-3-3z" fill="#f60"/>
 <path id="path2" d="m5 6v10h12l3-3h19l4 2.4036v-2.4036l-7-4h-12l-3-3z" fill-opacity=".33" fill-rule="evenodd"/>
 <path id="path3" d="m21 6 2 4h13l7 3-7-4h-12zm-1 7-3 3h-13v1h14zm19 0 4 4-0.0012 23.999 1.0012 8.82e-4v-25z" fill="#fff" fill-opacity=".2" fill-rule="evenodd"/>
 <path id="path4" class="ColorScheme-Text" d="m20 13-4 2h-11v1h12zm-16 23v2l7 4h33v-1l-31.298-0.02756z" fill-opacity=".2" fill-rule="evenodd"/>
</svg>

<?xml version="1.0" encoding="UTF-8" standalone="no"?>
<svg
   viewBox="0 0 48 48"
   version="1.1"
   id="svg4"
   sodipodi:docname="folder.svg"
   inkscape:version="1.4.3 (0d15f75042, 2025-12-25)"
   xmlns:inkscape="http://www.inkscape.org/namespaces/inkscape"
   xmlns:sodipodi="http://sodipodi.sourceforge.net/DTD/sodipodi-0.dtd"
   xmlns="http://www.w3.org/2000/svg"
   xmlns:svg="http://www.w3.org/2000/svg">
  <sodipodi:namedview
     id="namedview4"
     pagecolor="#505050"
     bordercolor="#ffffff"
     borderopacity="1"
     inkscape:showpageshadow="0"
     inkscape:pageopacity="0"
     inkscape:pagecheckerboard="1"
     inkscape:deskcolor="#505050"
     showgrid="true"
     inkscape:zoom="18.497577"
     inkscape:cx="30.030959"
     inkscape:cy="18.705152"
     inkscape:window-width="1918"
     inkscape:window-height="1042"
     inkscape:window-x="0"
     inkscape:window-y="0"
     inkscape:window-maximized="1"
     inkscape:current-layer="svg4">
    <inkscape:grid
       id="grid4"
       units="px"
       originx="0"
       originy="0"
       spacingx="1"
       spacingy="1"
       empcolor="#0099e5"
       empopacity="0.30196078"
       color="#0099e5"
       opacity="0.14902"
       empspacing="5"
       enabled="true"
       visible="true" />
  </sodipodi:namedview>
  <defs
     id="defs3051">
    <style
       type="text/css"
       id="current-color-scheme">
      .ColorScheme-Text {
        color:#31363b;
      }
      .ColorScheme-Accent {
        color:#3daee9;
      }
      </style>
  </defs>
  <path
     style="fill:#ff6600;fill-opacity:1;stroke:none"
     d="M 5,6 V 16 H 4 v 22 l 7,4 H 44 V 16 L 43,15.403622 V 13 L 36,9 H 24 L 21,6 Z"
     class="ColorScheme-Accent"
     id="path1"
     sodipodi:nodetypes="ccccccccccccc" />
  <path
     style="fill-opacity:0.33;fill-rule:evenodd"
     d="m 5,6 v 10 h 12 l 3,-3 h 19 l 4,2.403622 V 13 L 36,9 H 24 L 21,6 Z"
     id="path2"
     sodipodi:nodetypes="ccccccccccc" />
  <path
     style="fill:#ffffff;fill-opacity:0.2;fill-rule:evenodd"
     d="m 21,6 2,4 h 13 l 7,3 -7,-4 H 24 Z m -1,7 -3,3 H 4 v 1 h 14 z m 19,0 4,4 -0.0012,23.999118 L 44,41 V 16 Z"
     id="path3"
     sodipodi:nodetypes="ccccccccccccccccccc" />
  <path
     style="fill-opacity:0.2;fill-rule:evenodd"
     d="m 20,13 -4,2 H 5 v 1 H 17 Z M 4,36 v 2 l 7,4 h 33 v -1 l -31.298234,-0.02756 z"
     class="ColorScheme-Text"
     id="path4"
     sodipodi:nodetypes="ccccccccccccc" />
</svg>
